aprenda ex01
	repita 4 [
		repita 180 [ pf 1.5 pd 1]
		pd 90
	]
fim

aprenda ex02
	repita 3 [
		pf 100
		pd 120
		pf 70
		pd 120
	]
fim

aprenda ex03
	repita 3 [
		repita 180 [ pf 1.5 pd 1 ]
		pd 60
	]
fim

aprenda ex04
	repita 9 [
		repita 180 [ pf 1.5 pd 1 ]
		pd 100
	]
fim

